Obsidian/status/22s/qbittorrent-panel.svg

<svg height="22" width="22" xmlns="http://www.w3.org/2000/svg"><path d="m13 3a1 1 0 0 0 -1 1v11h2v-.541016c.607485.353206 1.297298.539172 2 .541016 2.209139 0 4-1.790861 4-4s-1.790861-4-4-4c-.70252.0013-1.392321.186556-2 .539063v-3.539063a1 1 0 0 0 -1-1zm-6.9999999 4c-2.209139 0-4 1.790861-4 4s1.790861 4 4 4c.7025232-.0013 1.3923246-.188495 2-.541016v3.541016a1 1 0 0 0 1 1 1 1 0 0 0 .9999999-1v-11h-1.9999999v.541016c-.6074852-.353206-1.2972984-.539161-2-.541016zm0 2c1.1045695 0 2 .895431 2 2s-.8954305 2-2 2-2-.895431-2-2 .8954305-2 2-2zm9.9999999 0c1.104569 0 2 .895431 2 2s-.895431 2-2 2-2-.895431-2-2 .895431-2 2-2z" fill="#d3dae3"/></svg>

<svg xmlns="http://www.w3.org/2000/svg" width="22" height="22" version="1">
 <defs>
  <style id="current-color-scheme" type="text/css">
   .ColorScheme-Text { color:#d3dae3; } .ColorScheme-Highlight { color:#5294e2; }
  </style>
 </defs>
 <path style="fill:currentColor" class="ColorScheme-Text" d="m 13,3 a 1,1 0 0 0 -1,1 v 11 h 2 V 14.458984 C 14.607485,14.81219 15.297298,14.998156 16,15 18.209139,15 20,13.209139 20,11 20,8.790861 18.209139,7 16,7 15.29748,7.0013 14.607679,7.186556 14,7.539063 V 4 A 1,1 0 0 0 13,3 Z M 6.0000001,7 c -2.209139,0 -4,1.790861 -4,4 0,2.209139 1.790861,4 4,4 0.7025232,-0.0013 1.3923246,-0.188495 2,-0.541016 V 18 a 1,1 0 0 0 1,1 A 1,1 0 0 0 10,18 V 7 H 8.0000001 V 7.541016 C 7.3925149,7.18781 6.7027017,7.001855 6.0000001,7 Z m 0,2 c 1.1045695,0 2,0.895431 2,2 0,1.104569 -0.8954305,2 -2,2 -1.1045695,0 -2,-0.895431 -2,-2 0,-1.104569 0.8954305,-2 2,-2 z M 16,9 c 1.104569,0 2,0.895431 2,2 0,1.104569 -0.895431,2 -2,2 -1.104569,0 -2,-0.895431 -2,-2 0,-1.104569 0.895431,-2 2,-2 z"/>
</svg>
